X:1
T:Title
%%score { 1 | ( 2 3 4 ) }
L:1/8
M:6/8
K:D
V:1 treble nm="Grand Piano"
V:2 bass 
V:3 bass 
V:4 bass 
V:1
 z3 z2[Q:1/4=87] [FA] | [FA]2 [GB] [FA]2 [A,CF] | .[DF]2[K:bass] [G,CE] [F,D]2[K:treble] [CE] | %3
 [CE]2 [DF] [EG]2 [^DF] | [EG]3- [EG]2 [CE] | [DF]2 [EG] [FA]2 [=F^G] | [FA]3- [FA]2 [FB] | %7
 [Ec]3 [DB]3 | [CA]3- [CA]2 [DA] | [Fd]2 [Fc] [FB]2 F |[M:5/8] A-A- A3 |[M:1/8] A | %12
[M:3/4] A2 [Dd] c2 B | c4- c[Ad] | [Fd]3 [Gd]3 | [Fd]4- [Fd][A,DA] | [DF]3 [CE]3 | %17
[M:5/8][K:bass] [F,D]-[F,D]- [F,D]3 |] %18
V:2
 z3 z2 [D,A,] | [D,D]2 [D,D] [D,D]2 F, | .A,2 A,, D,2 [A,,A,] | [A,,A,]2 [A,,A,] [A,,A,]2 [A,,A,] | %4
 [A,,A,]3- [A,,A,]2 [A,,A,] | [D,A,]2 [D,A,] [D,D]2 [D,B,] | [D,D]3- [D,D]2 [D,D] | %7
 [E,A,]3 [E,^G,]3 | [A,,A,]3- [A,,A,]2 [D,F,] | [D,A,]2 [D,A,] [D,D]2 [D,A,D] | %10
[M:5/8] [E,G,C]-[E,G,C]- [E,G,C]3 |[M:1/8] [E,G,C] |[M:3/4] [D,F,D]2 [B,,F,] [E,^G,E]2 [E,G,E] | %13
 [A,E]4- [A,E][F,D] | [B,D]3 [G,B,]3 | [D,A,]4- [D,A,]F, | A,6 |[M:5/8] D,-D,- D,3 |] %18
V:3
 x6 | x6 | x6 | x6 | x6 | x6 | x6 | x6 | x6 | x6 |[M:5/8] x5 |[M:1/8] x |[M:3/4] x6 | x6 | x6 | %15
 x6 | z2 z2 z G, |[M:5/8] x5 |] %18
V:4
 x6 | x6 | x6 | x6 | x6 | x6 | x6 | x6 | x6 | x6 |[M:5/8] x5 |[M:1/8] x |[M:3/4] x6 | x6 | x6 | %15
 x6 | z2 z A,,3 |[M:5/8] x5 |] %18

